packages/dnb-ui-lib/assets/icons/support_medium.svg

<svg width="25" height="24" viewBox="0 0 25 24" fill="none" xmlns="http://www.w3.org/2000/svg">
<path d="M0.750183 12L6.06054 12.5421C6.63877 12.6023 7.18921 12.8302 7.64928 13.2001L11.8594 16.6058C12.3848 17.0128 12.7093 17.642 12.7452 18.3231C12.7963 18.957 12.4523 19.5538 11.8912 19.8045C11.1979 20.1213 10.3976 20.0496 9.76628 19.6142L7.03762 17.8307M12.5438 19.4632H19.7843C20.7335 19.4502 22.3276 20 22.3276 21.6111C22.3276 21.6111 18.3605 22.0718 10.4263 22.9932C9.90278 23.0273 9.37884 22.9326 8.91143 22.7193L0.750183 19M15.5249 15L9.13328 8.39647C7.9812 7.25614 7.69569 5.51318 8.42465 4.0705C8.96837 2.9936 10.0015 2.24123 11.2013 2.0484C12.4012 1.85557 13.6214 2.24577 14.481 3.09714L15.5249 4.13059L16.5689 3.09714C17.4284 2.24577 18.6487 1.85557 19.8486 2.0484C21.0484 2.24123 22.0815 2.9936 22.6252 4.0705C23.3532 5.51257 23.068 7.25425 21.9173 8.39449L15.5249 15Z" stroke="black" stroke-width="1.5" stroke-linecap="round" stroke-linejoin="round"/>
</svg>

<svg width="24" height="24" viewBox="0 0 25 24" fill="none" xmlns="http://www.w3.org/2000/svg"><path d="M.75 12l5.31.542c.579.06 1.13.288 1.59.658l4.21 3.406c.525.407.85 1.036.885 1.717a1.486 1.486 0 01-.854 1.482 2.152 2.152 0 01-2.125-.19L7.038 17.83m5.506 1.632h7.24c.95-.013 2.544.537 2.544 2.148l-11.902 1.382a3.164 3.164 0 01-1.515-.274L.751 19m14.774-4L9.133 8.396a3.72 3.72 0 01-.708-4.326A3.779 3.779 0 0111.2 2.049c1.2-.192 2.42.198 3.28 1.05l1.044 1.033 1.044-1.034a3.804 3.804 0 013.28-1.049 3.78 3.78 0 012.776 2.022 3.72 3.72 0 01-.708 4.324L15.525 15z" stroke="#000" stroke-width="1.5" stroke-linecap="round" stroke-linejoin="round"/></svg>
